packages/icons/svgs/solid/facebook-solid.svg

<svg width="12" height="12" viewBox="0 0 12 12" fill="none" xmlns="http://www.w3.org/2000/svg">
<g clip-path="url(#clip0_1720_870)">
<path d="M12 6.03601C12.0002 4.88932 11.6719 3.76658 11.0538 2.80072C10.4358 1.83485 9.55389 1.06633 8.51259 0.586136C7.47129 0.105943 6.3142 -0.0658034 5.17832 0.0912318C4.04244 0.248267 2.97534 0.727507 2.10338 1.47221C1.23142 2.21691 0.591124 3.19587 0.258297 4.2932C-0.07453 5.39052 -0.0859433 6.56023 0.225408 7.66384C0.53676 8.76745 1.15784 9.75872 2.0151 10.5203C2.87236 11.2819 3.9299 11.7818 5.0625 11.961V7.77001H3.53925V6.03601H5.0625V4.71376C5.0297 4.40509 5.0652 4.09299 5.16647 3.79958C5.26774 3.50616 5.43231 3.23861 5.64852 3.01589C5.86473 2.79318 6.12728 2.62074 6.41756 2.5108C6.70784 2.40087 7.01875 2.35613 7.32825 2.37976C7.77827 2.38567 8.22724 2.42478 8.6715 2.49676V3.97501H7.9155C7.78672 3.95817 7.6558 3.9705 7.53243 4.01109C7.40906 4.05169 7.29639 4.1195 7.20277 4.20952C7.10915 4.29954 7.03697 4.40946 6.99158 4.53115C6.94618 4.65283 6.92872 4.78317 6.9405 4.91251V6.03751H8.60475L8.3385 7.77151H6.9375V11.9648C8.34918 11.7414 9.63477 11.0215 10.5629 9.93464C11.491 8.84774 12.0006 7.46524 12 6.03601Z" fill="black"/>
</g>
<defs>
<clipPath id="clip0_1720_870">
<rect width="12" height="12" fill="white"/>
</clipPath>
</defs>
</svg>

<svg width="12" height="12" viewBox="0 0 12 12" xmlns="http://www.w3.org/2000/svg"><g clip-path="url(#a)"><path d="M12 6.036a6 6 0 1 0-6.938 5.925V7.77H3.54V6.036h1.523V4.714A2.117 2.117 0 0 1 7.329 2.38c.45.006.9.045 1.343.117v1.478h-.755a.866.866 0 0 0-.976.938v1.125h1.665l-.267 1.734h-1.4v4.193A6 6 0 0 0 12 6.036Z"/></g><defs><clipPath id="a"><path fill="#fff" d="M0 0h12v12H0z"/></clipPath></defs></svg>
